X: 1
T: Gan Ainm
M: 4/4
L: 1/8
R: reel
K: Amin
E2~A2 cED2|E2cd BABd|e2de GAc2|dBed BAAG|
~E3A cED2|E2cd BABd|e2de GAce|dBed BAA2||
geed cdE2|c2d2 gedc|eAcG EDD2|E2cd BABd|
geed cdE2|c2d2 gedc|e2de ceBe|cBed BAAG||
